!!!COM:	Bach, Johann Sebastian
!!!CDT:	1685/02/21/-1750/07/28/
!!!OTL@@DE:	Jesu, meine Freude
!!!SCT:	BWV 358
!!!PC#:	356
!!!AGN:	chorale
**kern	**kern	**kern	**kern
*ICvox	*ICvox	*ICvox	*ICvox
*Ibass	*Itenor	*Ialto	*Isoprn
*I"Bass	*I"Tenor	*I"Alto	*I"Soprano
*>[A,A,B]	*>[A,A,B]	*>[A,A,B]	*>[A,A,B]
*>norep[A,B]	*>norep[A,B]	*>norep[A,B]	*>norep[A,B]
*>A	*>A	*>A	*>A
*	*oclefC4	*oclefC3	*oclefC1
*clefF4	*clefGv2	*clefG2	*clefG2
*k[b-]	*k[b-]	*k[b-]	*k[b-]
*d:	*d:	*d:	*d:
*M4/4	*M4/4	*M4/4	*M4/4
*met(c)	*met(c)	*met(c)	*met(c)
*MM100	*MM100	*MM100	*MM100
=1-	=1-	=1-	=1-
8DL	8FL	4d	4a
8EJ	8GJ	.	.
4F	4A	4d	4a
4C#	8B-L	4e	4g
.	8AJ	.	.
4D	4A	4d	4f
=2	=2	=2	=2
4GG	4B-	4d	2e
4AA	8AL	4c#	.
.	8GJ	.	.
2DD;	2F;	2A;	2d;
=3	=3	=3	=3
8DL	8fL	4d	4a
8EJ	8eJ	.	.
4F	4d	4G	4b
8EL	4cnX	8gL	4ccnX
8FJ	.	8fJ	.
4G	4c#	4e	4a
=4	=4	=4	=4
8F#L	8dL	4a	2dd
8GJ	8eJ	.	.
4G#	4f	4b	.
2A;	2e;	2a;	2cc#;
=5	=5	=5	=5
4B-X	4d	4g	8ddL
.	.	.	8eeJ
8AL	4d	8aL	4ff
8GJ	.	8b-XJ	.
4A	4d	8gL	4ee
.	.	8b-	.
4AA	4c#	8a	4ee
.	.	8gJ	.
=6	=6	=6	=6
1D;	1A;	1f;	1dd;
=7:|!	=7:|!	=7:|!	=7:|!
*>B	*>B	*>B	*>B
8DL	4d	4f	4a
8EJ	.	.	.
4F	4c	8fL	4a
.	.	8e-J	.
4G	8B-L	8dL	4b-
.	8cJ	8eJ	.
8DL	4d	4f	4a
8CJ	.	.	.
=8	=8	=8	=8
8BB-L	4d	4f	4g
8GGJ	.	.	.
4C	8cL	4e	4g
.	8B-J	.	.
2FF;	2A;	2c;	2f;
=9	=9	=9	=9
4F	4A	4c	4a
8EL	8GL	4f	4b
8DJ	8FJ	.	.
4E	4G	8eL	8ccL
.	.	8dJ	8bJ
4F	[4A	4c	4a
=10	=10	=10	=10
4BB	8AL]	4f	4dd
.	8G#J	.	.
8CL	2A	8eL	8ccL
8DJ	.	8fJ	8bJ
2E	.	4.e	2b
.	4G#	.	.
.	.	8d	.
=11	=11	=11	=11
2AA;	2A;	2c#;	2a;
8DL	8FL	4.d	4a
8EJ	8GnXJ	.	.
4F	4A	.	4a
.	.	8c#	.
=12	=12	=12	=12
8BBL	8DL	8dL	4g
8C#J	8AJ	8eJ	.
4D	4A	8eL	4f
.	.	8dJ	.
4GG#	8BnXL	8dL	2e
.	8EJ	16c#L	.
.	.	16BJJ	.
4AA	8AL	4c#	.
.	8GJ	.	.
=13	=13	=13	=13
1DD;	1F#;	1A;	1d;
==	==	==	==
*-	*-	*-	*-
!!!YOR1: 371 vierstimmige Choralges&auml;nge von Johann Sebastian Bach, 
!!!YOR2: 4th ed. by Alfred D&ouml;rffel (Leipzig: Breitkopf und H&auml;rtel, 
!!!YOR2: c.1875). 178 pp. Plate "V.A.10".  reprint: J.S. Bach, 371 Four-Part 
!!!YOR4: Chorales (New York: Associated Music Publishers, Inc., c.1940).
!!!SMS: B&H, 4th ed, Alfred D&ouml;rffel, c.1875, plate V.A.10
!!!EED:  Craig Stuart Sapp
!!!EEV:  2009/05/22
